X: 2
T: The Hullichan Jig
M: 9/8
L: 1/8
R: jig
K: D Major
|: A |
D2 D  FDF | A2 A AFD | GFG B/c/dB | AFD E2 A |
DED FD/E/F | ABA F2 d | cBA GFE | D3 D2 :|
|: F |
A2 A FGA | B2 B BG/A/B | cdc ABc | dF/B/A dcB |
ABA FGA | BGB d2 B | cBA GFE | D3- D2 :|
